packages/dnb-eufemia/assets/icons/boat_medium.svg

<svg width="24" height="24" viewBox="0 0 24 24" fill="none" xmlns="http://www.w3.org/2000/svg">
<path d="M11 16.4941H22.5C23.0337 16.4938 23.3981 17.0704 23.186 17.549C22.8421 18.2882 22.4743 19.0805 21.757 19.864C19.2162 22.6394 16.261 23 12.5 23C8.73906 23 5.39355 22.3844 2.60003 19.864C1.75241 19.0992 1.22975 18.4331 0.814034 17.549C0.59773 17.0607 0.976903 16.4938 1.50003 16.4941H11ZM11 16.4941V12.6065M11 12.6065V2.20802C11.0003 1.06996 9.59045 0.551586 8.88997 1.47545L2.26974 11.4815C1.94774 11.9632 2.3252 12.6078 2.89171 12.6065H11ZM15.8527 5.8213L20.3839 12.8638C20.6923 13.3451 20.3221 13.9941 19.7658 13.9952H14.5V6.21864C14.4994 5.49647 15.4788 5.23982 15.8527 5.8213Z" stroke="black" stroke-width="1.5" stroke-linecap="round" stroke-linejoin="round"/>
</svg>

<svg width="24" height="24" viewBox="0 0 24 24" fill="none" xmlns="http://www.w3.org/2000/svg"><path d="M11 16.494h11.5c.534 0 .898.576.686 1.055-.344.74-.712 1.532-1.429 2.315C19.217 22.639 16.261 23 12.5 23c-3.76 0-7.106-.616-9.9-3.136-.848-.765-1.37-1.43-1.786-2.315-.216-.488.163-1.055.686-1.055H11Zm0 0v-3.887m0 0V2.208C11 1.07 9.59.552 8.89 1.475L2.27 11.481c-.322.482.055 1.127.622 1.126H11Zm4.853-6.786 4.53 7.043c.31.481-.06 1.13-.617 1.131H14.5V6.22c0-.723.979-.98 1.353-.398Z" stroke="#000" stroke-width="1.5" stroke-linecap="round" stroke-linejoin="round"/></svg>
